X: 31473
T: Paddy The Ahhhhh
R: reel
M: 4/4
K: Gmajor
gBB/B/B dBAB|GDD/D/D DGBG|AFF/F/F AFdF|fgfe dcBA|
gBB/B/B dBAB|GDD/D/D DGBG|AFF/F/F EDEF|GBA/G/F G4:|
BGG/G/G BGcG|BGG/G/G DGBG|AFF/F/F AFdF|fgfe dcBA|
BGG/G/G BGcG|BGG/G/G DGBG|AFF/F/F EDEF|GBA/G/F G4:|
BGGB GGcG|BGGB GGcG|BGGB GGcG|AGGA GGcG|
BGGB GGcG|BGGB GGcG|AFF/F/F EDEF|GBA/G/F G4:|
"3rd part harmony"
dBBd BBeB|dBBd BBeB|dBBd BBeB|cBBc BBeB|
dBBd BBeB|dBBd BBeB|cAA/A/A GFGA|Bdc/B/A B4:|

